X:1
T:Svingedans
T:(FMK M 89b bild 5)
T:efter Carolina Persson
B:Folkmusikkommissionen
R:Svingedans
O:Sjönadal, Vollsjö, Skåne
Z:Åke Persson 2012-03-13
M:3/4
L:1/8
Q:108
%%printtempo 0
%%MIDI ratio 2 1
K:D
|: D2 D2 (F/E/)E | D2 FA d2 | c2 e2 (c/B/)c | d2 fd A2 | D2 D2 (F/E/)E | D2 FA d2 | c2 e2 (c/B/)c | d2 d2 z2 :|
|: (dc)(ec)Bc | d2 fe A2 | (dc)(ec)Bc | d2 fe A2 | D2 D2 (F/E/)E | D2 FA d2 | c2 e2 (c/B/)c | d2 d2 z2 :|

